public/images/go-top-button.svg

<svg fill="none" height="40" viewBox="0 0 40 40" width="40" xmlns="http://www.w3.org/2000/svg"><circle fill="#000" fill-opacity=".5" r="20" transform="matrix(1 .00000017 .00000017 -1 20 20)"/><path d="m19.9655 16.0007c-.2731.0058-.5342.1033-.7326.2735l-6.896 6.0018c-.2104.1847-.3315.4375-.3367.703s.1059.522.3089.7133c.2031.1914.4816.3019.7744.3074.2928.0056.5761-.0944.7877-.2779l6.1288-5.3375 6.1288 5.3375c.2116.1835.4949.2835.7877.278.2928-.0056.5713-.1161.7744-.3075.203-.1913.3141-.4478.3089-.7133s-.1263-.5183-.3367-.703l-6.8959-6.0018c-.1068-.0917-.2327-.1632-.3704-.2101-.1377-.047-.2843-.0685-.4313-.0634z" fill="#fff"/></svg>

<svg width="40" height="40" viewBox="0 0 40 40" fill="none" xmlns="http://www.w3.org/2000/svg">
<circle r="20" transform="matrix(1 1.74846e-07 1.74846e-07 -1 20 20)" fill="black" fill-opacity="0.5"/>
<path d="M19.9655 16.0007C19.6924 16.0065 19.4313 16.104 19.2329 16.2742L12.3369 22.276C12.1265 22.4607 12.0054 22.7135 12.0002 22.979C11.995 23.2445 12.1061 23.501 12.3091 23.6923C12.5122 23.8837 12.7907 23.9942 13.0835 23.9997C13.3763 24.0053 13.6596 23.9053 13.8712 23.7218L20 18.3843L26.1288 23.7218C26.3404 23.9053 26.6237 24.0053 26.9165 23.9998C27.2093 23.9942 27.4878 23.8837 27.6909 23.6923C27.8939 23.501 28.005 23.2445 27.9998 22.979C27.9946 22.7135 27.8735 22.4607 27.6631 22.276L20.7672 16.2742C20.6604 16.1825 20.5345 16.111 20.3968 16.0641C20.2591 16.0171 20.1125 15.9956 19.9655 16.0007Z" fill="white"/>
</svg>
